X:1
T:Merrial, 65.65
T:Merrial, 65.65
T:Joseph Barnby, 1868
T:Public Domain Courtesy of the Cyber Hymnal™
C:Joseph Barnby, 1868
Z:Public Domain
Z:Courtesy of the Cyber Hymnal™
%%score ( 1 2 ) ( 3 4 )
L:1/8
Q:1/4=110
M:4/4
K:A
V:1 treble 
V:2 treble 
V:3 bass 
V:4 bass 
V:1
 [CE]2 [CE]2 [B,E]2 E2 | [CE]4 [CE]4 | [CF]2 [CF]2 [C^E]2 (FG) | (F4 A4) | %4
 [CA]3 [CA] [^DG]2 [DF]2 | E4 E4 | [DE]3 [DE] [DE]2 [DE]2 | [CE]8 |] %8
V:2
 x6 (CD) | x8 | x6 C2 | C8 | x8 | E4 E4 | x8 | x8 |] %8
V:3
 A,2 [E,A,]2 G,2 [E,G,]2 | A,4 A,4 | [F,,A,]2 [A,,A,]2 [C,G,]2 [C,B,]2 | (A,2 C2 F2 E2) | %4
 ^D2 z [B,,B,]2 [B,,A,]2 x | G,4 A,4 | [B,,A,]2 [B,,G,]2 [B,,F,]2 [B,,G,]2 | [A,,A,]8 |] %8
V:4
 A,2 G,2 x4 | (A,2 E,2) (C,2 A,,2) | x8 | F,8 | B,,3 F,2 B,, x2 | (E,2 D,2) (C,2 =C,2) | x8 | x8 |] %8

